site/static/whos-using-svelte/square.svg

<svg width="144" height="36" viewBox="0 0 144 36" fill="none" xmlns="http://www.w3.org/2000/svg">
	<path d="M29.4547 27.5566C29.4547 28.6055 28.6042 29.4555 27.5563 29.4555H8.44636C7.39803 29.4555 6.54795 28.6055 6.54795 27.5566V8.44619C6.54795 7.39734 7.39803 6.54725 8.44636 6.54725H27.5563C28.6042 6.54725 29.4547 7.39734 29.4547 8.44619V27.5566ZM29.9841 0H6.01575C2.6933 0 0 2.69278 0 6.01575V29.9834C0 33.3056 2.6933 36 6.01575 36H29.9841C33.3065 36 36.0009 33.3056 36.0009 29.9834V6.01575C36.0009 2.69278 33.3065 0 29.9841 0Z" fill="#231F20"/>
	<path d="M14.1809 22.8852C13.5767 22.8852 13.0917 22.3949 13.0917 21.7904V14.1622C13.0917 13.5568 13.5767 13.0665 14.1809 13.0665H21.8206C22.423 13.0665 22.91 13.5568 22.91 14.1622V21.7904C22.91 22.3949 22.423 22.8852 21.8206 22.8852H14.1809Z" fill="#231F20"/>
	<path d="M54.3159 16.3963C53.2006 16.0922 52.1465 15.805 51.3282 15.4405C49.8118 14.7626 49.106 13.8238 49.106 12.4855C49.106 9.95572 51.5564 8.82338 53.9852 8.82338C56.2992 8.82338 58.3205 9.77966 59.6778 11.5165L59.7709 11.6351L61.7279 10.1058L61.6336 9.98664C59.8321 7.69191 57.1599 6.42805 54.1094 6.42805C52.0783 6.42805 50.2156 6.97684 48.8641 7.97295C47.3529 9.088 46.5537 10.6912 46.5537 12.6099C46.5537 17.0724 50.7568 18.1612 54.1337 19.0366C57.5515 19.9379 59.6462 20.6229 59.6462 23.2334C59.6462 25.7989 57.5718 27.4559 54.3613 27.4559C52.7736 27.4559 49.8337 27.0352 47.9864 24.2124L47.9001 24.08L45.8426 25.5703L45.9224 25.691C47.6647 28.3354 50.683 29.853 54.2032 29.853C58.9844 29.853 62.1972 27.1553 62.1972 23.1405C62.1972 18.5429 57.8275 17.3527 54.3159 16.3963Z" fill="#231F20"/>
	<path d="M72.3819 27.582C69.8722 27.582 67.19 25.914 67.19 21.2334C67.19 18.1802 68.5536 14.9175 72.3819 14.9175C75.6684 14.9175 77.7924 17.3969 77.7924 21.2334C77.7924 25.0903 75.6684 27.582 72.3819 27.582ZM77.7924 13.0527V15.4683C76.464 13.6645 74.4932 12.6784 72.1929 12.6784C67.8178 12.6784 64.7619 16.2092 64.7619 21.2641C64.7619 26.3023 67.8178 29.8212 72.1929 29.8212C74.5082 29.8212 76.4786 28.8364 77.7924 27.0357V35.9999H80.0933V13.0527H77.7924Z" fill="#231F20"/>
	<path d="M95.3003 13.0527V22.1094C95.3003 25.2802 93.1299 27.5821 90.1392 27.5821C87.6548 27.5821 86.4473 26.1083 86.4473 23.0772V13.0527H84.1451V23.5458C84.1451 27.475 86.2812 29.8213 89.8581 29.8213C92.0868 29.8213 94.0018 28.8765 95.3003 27.1484V29.4463H97.6006V13.0527H95.3003Z" fill="#231F20"/>
	<path d="M106.996 27.582C105.933 27.582 103.46 27.2979 103.46 24.6699C103.46 22.8422 104.618 22.2972 106.899 21.8817C107.13 21.8393 107.369 21.7974 107.614 21.7549C109.044 21.5064 110.653 21.2266 111.781 20.5187V22.8902C111.781 26.3496 109.309 27.582 106.996 27.582ZM108.246 12.6784C105.931 12.6784 103.63 13.442 101.934 14.7726L101.825 14.8582L103.028 16.6813L103.158 16.5681C104.589 15.3275 106.693 14.8856 108.184 14.8856C109.028 14.8856 111.781 15.0505 111.781 17.1719C111.781 19.0489 109.494 19.3994 107.281 19.7388C107.007 19.7807 106.736 19.8223 106.471 19.8666C104.853 20.1361 101.064 20.7681 101.064 24.7968C101.064 27.8955 103.253 29.8212 106.778 29.8212C108.939 29.8212 110.621 29.084 111.781 27.629V29.4464H114.083V17.5469C114.083 14.4984 111.901 12.6784 108.246 12.6784Z" fill="#231F20"/>
	<path d="M127.403 13.3627C126.856 12.973 125.995 12.7402 125.097 12.7402C123.282 12.7402 121.442 13.7067 120.436 15.1418V13.0528H118.135V29.4463H120.436V20.6709C120.436 16.7827 122.62 15.042 124.785 15.042C125.455 15.042 126.177 15.1944 126.621 15.4308L126.776 15.5133L127.496 13.4283L127.403 13.3627Z" fill="#231F20"/>
	<path d="M130.586 19.6157C130.897 16.7359 132.889 14.8855 135.7 14.8855C139.109 14.8855 140.523 17.2988 140.723 19.6157H130.586ZM135.762 12.6783C131.239 12.6783 128.081 16.2222 128.081 21.2953C128.081 26.3949 131.243 29.8213 135.949 29.8213C139.285 29.8213 141.303 28.2114 142.41 26.8608L142.502 26.7485L140.835 25.2631L140.736 25.3915C139.641 26.8042 137.985 27.5819 136.074 27.5819C132.739 27.5819 130.567 25.2528 130.509 21.6354H143.084L143.099 21.5009C143.114 21.3648 143.162 20.8775 143.162 20.3275C143.162 15.8238 140.119 12.6783 135.762 12.6783Z" fill="#231F20"/>
</svg>

<svg width="144" height="36" fill="none" xmlns="http://www.w3.org/2000/svg"><path d="M29.455 27.557c0 1.049-.85 1.899-1.899 1.899H8.446a1.899 1.899 0 0 1-1.898-1.9V8.447c0-1.049.85-1.899 1.898-1.899h19.11c1.048 0 1.899.85 1.899 1.9v19.11zM29.985 0H6.014A6.015 6.015 0 0 0 0 6.016v23.967A6.017 6.017 0 0 0 6.016 36h23.968a6.018 6.018 0 0 0 6.017-6.017V6.016A6.016 6.016 0 0 0 29.984 0z" fill="#231F20"/><path d="M14.18 22.885a1.09 1.09 0 0 1-1.088-1.095v-7.628a1.09 1.09 0 0 1 1.089-1.096h7.64c.602 0 1.089.49 1.089 1.096v7.628c0 .605-.487 1.095-1.09 1.095h-7.64zM54.316 16.396c-1.115-.304-2.17-.591-2.988-.956-1.516-.677-2.222-1.616-2.222-2.954 0-2.53 2.45-3.663 4.88-3.663 2.313 0 4.335.957 5.692 2.694l.093.118 1.957-1.53-.094-.118c-1.802-2.295-4.474-3.559-7.525-3.559-2.03 0-3.893.549-5.245 1.545-1.511 1.115-2.31 2.718-2.31 4.637 0 4.462 4.203 5.551 7.58 6.427 3.417.9 5.512 1.586 5.512 4.196 0 2.566-2.074 4.223-5.285 4.223-1.587 0-4.527-.42-6.375-3.244l-.086-.132-2.057 1.49.08.121c1.742 2.644 4.76 4.162 8.28 4.162 4.781 0 7.994-2.698 7.994-6.713 0-4.597-4.37-5.787-7.881-6.744zM72.382 27.582c-2.51 0-5.192-1.668-5.192-6.349 0-3.053 1.364-6.316 5.192-6.316 3.286 0 5.41 2.48 5.41 6.316 0 3.857-2.124 6.349-5.41 6.349zm5.41-14.53v2.416c-1.328-1.803-3.299-2.79-5.6-2.79-4.374 0-7.43 3.531-7.43 8.586 0 5.038 3.056 8.557 7.43 8.557 2.316 0 4.287-.985 5.6-2.785V36h2.301V13.053h-2.3zM95.3 13.053v9.056c0 3.171-2.17 5.473-5.16 5.473-2.485 0-3.693-1.474-3.693-4.505V13.053h-2.302v10.493c0 3.929 2.136 6.275 5.713 6.275 2.229 0 4.144-.945 5.442-2.673v2.298h2.3V13.053h-2.3zM106.996 27.582c-1.063 0-3.536-.284-3.536-2.912 0-1.828 1.158-2.373 3.439-2.788.231-.043.47-.085.715-.127 1.43-.249 3.039-.528 4.167-1.236v2.371c0 3.46-2.472 4.692-4.785 4.692zm1.25-14.904c-2.315 0-4.616.764-6.312 2.095l-.109.085 1.203 1.823.13-.113c1.431-1.24 3.535-1.682 5.026-1.682.844 0 3.597.165 3.597 2.286 0 1.877-2.287 2.227-4.5 2.567a59.4 59.4 0 0 0-.81.128c-1.618.27-5.407.901-5.407 4.93 0 3.098 2.189 5.024 5.714 5.024 2.161 0 3.843-.737 5.003-2.192v1.817h2.302v-11.9c0-3.048-2.182-4.868-5.837-4.868zM127.403 13.363c-.547-.39-1.408-.623-2.306-.623-1.815 0-3.655.967-4.661 2.402v-2.09h-2.301v16.394h2.301v-8.775c0-3.888 2.184-5.629 4.349-5.629.67 0 1.392.152 1.836.389l.155.082.72-2.085-.093-.065zM130.586 19.616c.311-2.88 2.303-4.73 5.114-4.73 3.409 0 4.823 2.413 5.023 4.73h-10.137zm5.176-6.938c-4.523 0-7.681 3.544-7.681 8.617 0 5.1 3.162 8.526 7.868 8.526 3.336 0 5.354-1.61 6.461-2.96l.092-.113-1.667-1.485-.099.128c-1.095 1.413-2.751 2.19-4.662 2.19-3.335 0-5.507-2.328-5.565-5.946h12.575l.015-.134c.015-.136.063-.623.063-1.174 0-4.503-3.043-7.649-7.4-7.649z" fill="#231F20"/></svg>
